images/ukol.svg

<svg width="40" height="78" viewBox="0 0 40 78" fill="none" xmlns="http://www.w3.org/2000/svg">
<path d="M31.2199 61.283H8.78008L6.4151 56.7547H33.5849L31.2199 61.283Z" fill="#716680"/>
<path d="M29.0566 56.7547L26.6916 61.283H31.2199L33.5849 56.7547H29.0566Z" fill="#635870"/>
<path d="M15.4717 61.283H24.5283V65.8113H15.4717V61.283Z" fill="#FF573D"/>
<path d="M20 61.283H24.5283V65.8113H20V61.283Z" fill="#E64028"/>
<path d="M6.4151 17.5094H33.5849V56.7547H6.4151V17.5094Z" fill="#CEE8F2"/>
<path d="M29.0566 17.5094H33.5849V56.7547H29.0566V17.5094Z" fill="#9AD5ED"/>
<path d="M36.6038 17.5094H3.39623C2.14564 17.5094 1.13208 16.4958 1.13208 15.2452C1.13208 13.9946 2.14564 12.9811 3.39623 12.9811H36.6038C37.8544 12.9811 38.8679 13.9946 38.8679 15.2452C38.8679 16.4958 37.8544 17.5094 36.6038 17.5094Z" fill="#716680"/>
<path d="M36.6038 12.9811H32.0755C33.3261 12.9811 34.3397 13.9946 34.3397 15.2452C34.3397 16.4958 33.3261 17.5094 32.0755 17.5094H36.6038C37.8544 17.5094 38.868 16.4958 38.868 15.2452C38.868 13.9946 37.8544 12.9811 36.6038 12.9811Z" fill="#635870"/>
<path d="M27.849 5.66041H12.1509C10.9003 5.66041 9.88678 4.64685 9.88678 3.39626C9.88678 2.14567 10.9003 1.13211 12.1509 1.13211H27.849C29.0996 1.13211 30.1132 2.14567 30.1132 3.39626C30.1132 4.64685 29.0996 5.66041 27.849 5.66041Z" fill="#E8E1D5"/>
<path d="M27.8491 1.13211H23.3208C24.5714 1.13211 25.585 2.14567 25.585 3.39626C25.585 4.64685 24.5714 5.66041 23.3208 5.66041H27.8491C29.0997 5.66041 30.1133 4.64685 30.1133 3.39626C30.1133 2.14567 29.0997 1.13211 27.8491 1.13211Z" fill="#D6CFC4"/>
<path d="M17.7358 5.66034H22.2641V12.9811H17.7358V5.66034Z" fill="#D6CFC4"/>
<path d="M6.4151 39.6828V56.7548H33.5849V42.2772C24.5372 41.7577 20.6474 35.6227 13.6604 35.6227C10.6627 35.6227 7.97465 37.1822 6.4151 39.6828Z" fill="#78C0DE"/>
<path d="M33.5849 39.6828V56.7548H6.4151V42.2778C15.4629 41.7571 19.3526 35.6227 26.3396 35.6227C27.2848 35.6227 28.1993 35.7783 29.0566 36.0678C30.921 36.6987 32.5177 37.97 33.5849 39.6828Z" fill="#89CEEA"/>
<path d="M33.5849 39.6828V56.7547H29.0566V36.0678C30.921 36.6987 32.5177 37.9699 33.5849 39.6828Z" fill="#78C0DE"/>
<path d="M28.6038 31.2452C28.6038 32.9127 27.2524 34.2641 25.5849 34.2641C23.9175 34.2641 22.566 32.9127 22.566 31.2452C22.566 29.5778 23.9175 28.2264 25.5849 28.2264C27.2524 28.2264 28.6038 29.5778 28.6038 31.2452Z" fill="#B0693C"/>
<path d="M17.434 31.2452C17.434 32.9127 16.0826 34.2641 14.4151 34.2641C12.7477 34.2641 11.3962 32.9127 11.3962 31.2452C11.3962 29.5778 12.7477 28.2264 14.4151 28.2264C16.0826 28.2264 17.434 29.5778 17.434 31.2452Z" fill="#B0693C"/>
<path d="M26.9434 36.5283C26.9434 33.444 23.8349 30.9434 20 30.9434C16.1651 30.9434 13.0566 33.444 13.0566 36.5283C13.0566 39.6126 16.1651 42.1132 20 42.1132C23.8349 42.1132 26.9434 39.6126 26.9434 36.5283Z" fill="#FFD659"/>
<path d="M36.6038 11.8491H29.6981C29.0725 11.8491 28.566 12.3561 28.566 12.9811C28.566 13.6061 29.0725 14.1132 29.6981 14.1132H36.6038C37.2282 14.1132 37.7359 14.6209 37.7359 15.2453C37.7359 15.8697 37.2282 16.3774 36.6038 16.3774H3.39623C2.77182 16.3774 2.26415 15.8697 2.26415 15.2453C2.26415 14.6209 2.77182 14.1132 3.39623 14.1132H24.8679C25.4935 14.1132 26 13.6061 26 12.9811C26 12.3561 25.4935 11.8491 24.8679 11.8491H23.3962V6.79245H27.8491C29.7217 6.79245 31.2453 5.26887 31.2453 3.39623C31.2453 1.52358 29.7217 0 27.8491 0H12.1509C10.2783 0 8.75472 1.52358 8.75472 3.39623C8.75472 5.26887 10.2783 6.79245 12.1509 6.79245H16.6038V11.8491H3.39623C1.52358 11.8491 0 13.3726 0 15.2453C0 17.1179 1.52358 18.6415 3.39623 18.6415H5.28302V19.2954C5.28302 19.921 5.79009 20.4275 6.41509 20.4275C7.04009 20.4275 7.54717 19.921 7.54717 19.2954V18.6415H32.4528V36.6958C31.1675 35.6368 29.6279 34.9204 27.9829 34.6338C29.0578 33.875 29.7358 32.6303 29.7358 31.2453C29.7358 28.9564 27.8738 27.0943 25.5849 27.0943C23.7476 27.0943 22.1869 28.2942 21.6415 29.9511C21.1114 29.8597 20.5625 29.8113 20 29.8113C19.4375 29.8113 18.8886 29.8597 18.3585 29.9511C17.8131 28.2942 16.2524 27.0943 14.4151 27.0943C12.1262 27.0943 10.2642 28.9564 10.2642 31.2453C10.2642 32.6303 10.9422 33.875 12.0171 34.6338C10.3721 34.9204 8.83255 35.6368 7.54717 36.6952V24.1509C7.54717 23.5259 7.04009 23.0189 6.41509 23.0189C5.79009 23.0189 5.28302 23.5259 5.28302 24.1509V56.7547C5.28302 56.7854 5.28538 56.8154 5.28774 56.8461C5.28833 56.8526 5.28774 56.8591 5.28833 56.865C5.29304 56.9104 5.30012 56.954 5.31014 56.9976C5.31191 57.0059 5.31427 57.0147 5.31663 57.023C5.32488 57.059 5.3355 57.0938 5.34729 57.1279C5.35083 57.1386 5.35495 57.1486 5.35849 57.1592C5.37264 57.1958 5.38797 57.2311 5.40566 57.2659C5.40802 57.27 5.4092 57.2748 5.41156 57.2789L5.41804 57.2919C5.41863 57.293 5.41981 57.2942 5.4204 57.296L7.77653 61.8072C7.9717 62.181 8.3579 62.4151 8.77948 62.4151H14.3396V65.8113C14.3396 66.4363 14.8467 66.9434 15.4717 66.9434H18.8679V76.1509C18.8679 76.7759 19.375 77.283 20 77.283C20.6256 77.283 21.1321 76.7759 21.1321 76.1509V66.9434H24.5283C25.1539 66.9434 25.6604 66.4363 25.6604 65.8113V62.4151H31.2199C31.6415 62.4151 32.0283 62.181 32.2235 61.8072L34.5802 57.2948C34.5802 57.2942 34.5808 57.2936 34.5814 57.293L34.5884 57.2789C34.5908 57.2742 34.5926 57.2689 34.5949 57.2642C34.612 57.2305 34.6274 57.1958 34.6409 57.1598C34.645 57.1492 34.6492 57.138 34.6527 57.1274C34.6645 57.0938 34.6751 57.059 34.6834 57.0236C34.6857 57.0147 34.6887 57.0065 34.6904 56.9976C34.6999 56.954 34.707 56.9104 34.7117 56.8656C34.7123 56.8585 34.7123 56.852 34.7129 56.8455C34.7152 56.8154 34.717 56.7854 34.717 56.7547V53.1067C34.717 52.4817 34.2105 51.9746 33.5849 51.9746C32.9599 51.9746 32.4528 52.4817 32.4528 53.1067V55.6226H7.54717V43.3172C10.4062 43.0094 12.6757 42.1822 14.4346 41.388C15.8844 42.5371 17.8443 43.2453 20 43.2453C22.1562 43.2453 24.1162 42.5377 25.5654 41.388C27.3243 42.1822 29.5938 43.0094 32.4528 43.3172V48.283C32.4528 48.908 32.9599 49.4151 33.5849 49.4151C34.2105 49.4151 34.717 48.908 34.717 48.283V18.6415H36.6038C38.4764 18.6415 40 17.1179 40 15.2453C40 13.3726 38.4764 11.8491 36.6038 11.8491ZM11.0189 3.39623C11.0189 2.77182 11.5265 2.26415 12.1509 2.26415H27.8491C28.4735 2.26415 28.9811 2.77182 28.9811 3.39623C28.9811 4.02064 28.4735 4.5283 27.8491 4.5283H12.1509C11.5265 4.5283 11.0189 4.02064 11.0189 3.39623ZM18.8679 6.79245H21.1321V11.8491H18.8679V6.79245ZM25.5849 29.3585C26.6256 29.3585 27.4717 30.2046 27.4717 31.2453C27.4717 31.8679 27.171 32.4281 26.6928 32.7736C25.9593 31.8721 24.9693 31.1262 23.8113 30.6085C24.0731 29.8809 24.7683 29.3585 25.5849 29.3585ZM14.4151 29.3585C15.2317 29.3585 15.9269 29.8809 16.1887 30.6085C15.0307 31.1262 14.0407 31.8721 13.3072 32.7736C12.829 32.4281 12.5283 31.8679 12.5283 31.2453C12.5283 30.2046 13.3744 29.3585 14.4151 29.3585ZM23.3962 64.6792H16.6038V62.4151H23.3962V64.6792ZM31.7164 57.8868L30.5342 60.1509H9.4658L8.28361 57.8868H31.7164ZM7.54717 40.0242C8.60083 38.4776 10.1751 37.3892 11.9428 36.9605C12.0165 37.9133 12.329 38.8113 12.832 39.6156C11.4004 40.214 9.65035 40.7854 7.54717 41.0407V40.0242ZM15.4717 39.3149C15.431 39.2677 15.3868 39.2246 15.3396 39.1857C14.6173 38.4434 14.1887 37.5236 14.1887 36.5283C14.1887 35.9175 14.3502 35.3355 14.6421 34.8048C14.6509 34.7913 14.658 34.7759 14.6663 34.7618C15.2588 33.7164 16.3591 32.8774 17.7282 32.4298C17.7541 32.4228 17.7795 32.4151 17.8042 32.4062C18.4823 32.1934 19.2235 32.0755 20 32.0755C20.7777 32.0755 21.52 32.194 22.1987 32.4074C22.2217 32.4157 22.2453 32.4228 22.2695 32.4292C23.6397 32.8762 24.7412 33.7158 25.3337 34.7624C25.342 34.7765 25.3491 34.7913 25.3579 34.8048C25.6498 35.3355 25.8113 35.9175 25.8113 36.5283C25.8113 37.5236 25.3827 38.4434 24.6598 39.1857C24.6132 39.2246 24.569 39.2677 24.5289 39.3143C23.4629 40.3296 21.829 40.9811 20 40.9811C18.171 40.9811 16.5377 40.3296 15.4717 39.3149ZM27.168 39.6156C27.671 38.8119 27.9835 37.9133 28.0572 36.9605C29.8249 37.3897 31.3992 38.4776 32.4528 40.0242V41.0407C30.3496 40.7854 28.5996 40.214 27.168 39.6156Z" fill="black"/>
<path d="M19.1698 34.4528C19.1698 35.0778 18.6627 35.5849 18.0377 35.5849C17.4127 35.5849 16.9056 35.0778 16.9056 34.4528C16.9056 33.8273 17.4127 33.3208 18.0377 33.3208C18.6627 33.3208 19.1698 33.8273 19.1698 34.4528Z" fill="black"/>
<path d="M23.0944 34.4528C23.0944 35.0778 22.5873 35.5849 21.9623 35.5849C21.3373 35.5849 20.8302 35.0778 20.8302 34.4528C20.8302 33.8273 21.3373 33.3208 21.9623 33.3208C22.5873 33.3208 23.0944 33.8273 23.0944 34.4528Z" fill="black"/>
</svg>

<svg width="40" height="78" fill="none" xmlns="http://www.w3.org/2000/svg"><path d="M31.22 61.283H8.78l-2.365-4.528h27.17l-2.365 4.528z" fill="#716680"/><path d="M29.057 56.755l-2.365 4.528h4.528l2.365-4.528h-4.528z" fill="#635870"/><path d="M15.472 61.283h9.056v4.528h-9.056v-4.528z" fill="#FF573D"/><path d="M20 61.283h4.528v4.528H20v-4.528z" fill="#E64028"/><path d="M6.415 17.51h27.17v39.245H6.415V17.509z" fill="#CEE8F2"/><path d="M29.057 17.51h4.528v39.245h-4.528V17.509z" fill="#9AD5ED"/><path d="M36.604 17.51H3.396a2.264 2.264 0 110-4.529h33.208a2.264 2.264 0 110 4.528z" fill="#716680"/><path d="M36.604 12.981h-4.529a2.264 2.264 0 110 4.528h4.529a2.264 2.264 0 100-4.528z" fill="#635870"/><path d="M27.849 5.66H12.151a2.264 2.264 0 110-4.528h15.698a2.264 2.264 0 110 4.528z" fill="#E8E1D5"/><path d="M27.85 1.132h-4.53a2.264 2.264 0 110 4.528h4.53a2.264 2.264 0 100-4.528zM17.736 5.66h4.528v7.321h-4.528v-7.32z" fill="#D6CFC4"/><path d="M6.415 39.683v17.072h27.17V42.277c-9.048-.52-12.938-6.654-19.925-6.654-2.997 0-5.685 1.56-7.245 4.06z" fill="#78C0DE"/><path d="M33.585 39.683v17.072H6.415V42.278c9.048-.52 12.938-6.655 19.925-6.655.945 0 1.86.155 2.717.445a8.585 8.585 0 014.528 3.615z" fill="#89CEEA"/><path d="M33.585 39.683v17.072h-4.528V36.068a8.585 8.585 0 014.528 3.615z" fill="#78C0DE"/><path d="M28.604 31.245a3.019 3.019 0 11-6.037 0 3.019 3.019 0 016.037 0zM17.434 31.245a3.019 3.019 0 11-6.037 0 3.019 3.019 0 016.037 0z" fill="#B0693C"/><path d="M26.943 36.528c0-3.084-3.108-5.585-6.943-5.585-3.835 0-6.943 2.501-6.943 5.585 0 3.085 3.108 5.585 6.943 5.585 3.835 0 6.943-2.5 6.943-5.585z" fill="#FFD659"/><path d="M36.604 11.85h-6.906a1.132 1.132 0 100 2.263h6.906a1.133 1.133 0 010 2.264H3.396a1.133 1.133 0 010-2.264h21.472a1.132 1.132 0 100-2.264h-1.472V6.792h4.453a3.4 3.4 0 003.396-3.396A3.4 3.4 0 0027.85 0H12.151a3.4 3.4 0 00-3.396 3.396 3.4 3.4 0 003.396 3.396h4.453v5.057H3.396A3.4 3.4 0 000 15.245a3.4 3.4 0 003.396 3.397h1.887v.653a1.132 1.132 0 102.264 0v-.654h24.906v18.055a9.64 9.64 0 00-4.47-2.062 4.137 4.137 0 001.753-3.389 4.156 4.156 0 00-4.151-4.15 4.158 4.158 0 00-3.944 2.856 9.66 9.66 0 00-3.282 0 4.158 4.158 0 00-3.944-2.857 4.156 4.156 0 00-4.15 4.151c0 1.385.677 2.63 1.752 3.389a9.645 9.645 0 00-4.47 2.061V24.151a1.132 1.132 0 00-2.264 0v32.604c0 .03.002.06.005.091v.019a1.09 1.09 0 00.06.263l.01.031c.015.037.03.072.048.107.002.004.003.009.006.013l.006.013.002.004 2.357 4.511c.195.374.58.608 1.002.608h5.56v3.396c0 .625.508 1.132 1.133 1.132h3.396v9.208a1.132 1.132 0 002.264 0v-9.208h3.396c.626 0 1.132-.507 1.132-1.132v-3.396h5.56c.422 0 .808-.234 1.004-.608l2.356-4.512.001-.002.007-.014.007-.015a1.028 1.028 0 00.088-.24c.003-.01.006-.017.007-.026a1.21 1.21 0 00.022-.132v-.02c.003-.03.005-.06.005-.091v-3.648a1.132 1.132 0 10-2.264 0v2.516H7.547V43.317c2.86-.308 5.129-1.135 6.888-1.929 1.45 1.15 3.41 1.857 5.565 1.857 2.156 0 4.116-.707 5.565-1.857 1.76.794 4.029 1.621 6.888 1.93v4.965a1.132 1.132 0 002.264 0V18.641h1.887A3.4 3.4 0 0040 15.245a3.4 3.4 0 00-3.396-3.396zM11.019 3.395c0-.624.508-1.132 1.132-1.132h15.698a1.133 1.133 0 010 2.264H12.151a1.133 1.133 0 01-1.132-1.132zm7.849 3.396h2.264v5.057h-2.264V6.792zm6.717 22.567a1.889 1.889 0 011.108 3.415c-.734-.902-1.724-1.648-2.882-2.166a1.888 1.888 0 011.774-1.25zm-11.17 0c.817 0 1.512.522 1.774 1.25-1.158.517-2.148 1.263-2.882 2.165a1.889 1.889 0 011.108-3.415zm8.981 35.32h-6.792v-2.264h6.792v2.264zm8.32-6.792l-1.182 2.264H9.466l-1.182-2.264h23.432zM7.547 40.024a7.468 7.468 0 014.396-3.063c.074.952.386 1.85.889 2.655-1.432.598-3.182 1.17-5.285 1.425v-1.017zm7.925-.71a1.088 1.088 0 00-.132-.128c-.723-.743-1.151-1.662-1.151-2.658 0-.61.161-1.192.453-1.723.009-.014.016-.03.024-.043.593-1.046 1.693-1.885 3.062-2.332A7.341 7.341 0 0120 32.076a7.338 7.338 0 012.27.353c1.37.447 2.471 1.287 3.064 2.333.008.014.015.03.024.043.292.53.453 1.112.453 1.723 0 .996-.428 1.915-1.151 2.658-.047.039-.091.082-.131.128-1.066 1.016-2.7 1.667-4.529 1.667-1.829 0-3.462-.651-4.528-1.666zm11.696.302a5.836 5.836 0 00.89-2.655 7.47 7.47 0 014.395 3.063v1.017c-2.103-.256-3.853-.827-5.285-1.425z" fill="#000"/><path d="M19.17 34.453a1.132 1.132 0 11-2.265 0 1.132 1.132 0 012.265 0zM23.094 34.453a1.132 1.132 0 11-2.264 0 1.132 1.132 0 012.264 0z" fill="#000"/></svg>
